X:450
T:Vals efter Henrik i Brönnestad (c:a 1850)
T:(SvL Skåne nr. 119)
B:Svenska Låtar Skåne
S:efter Henrik i Brönnestad
O:Brönnestad,Skåne
R:Vals
N:Denna transkribering är gjord efter en not som innehåller noteringen "StN 22/2-01". Låten finns i SvL Skåne nr. 119. 
M:3/4
L:1/8
K:G
D2|:G3 G G2|G2 B2 d2|g3 g g2|g2 d2 B2|G3 G G2|B2 A2 G2|F2 dd dd|d2 z2 D2|
E3 E E2| E2 A2 c2|e4 e2|e2 dc BA|G4 Bd|D4 FA| A2 G2 G2|[1 G2 z2 D2:|[2 G2 z2 BG|]
|: F2 A2 A2| FD FA ce| e4 d2| d4 Bd|d2 c2 A2|c3 A FA|A2 G2 G2|G4 BG| 
F2 A2 A2| FD FA ce|e4 d2|d3 B dg|f4 AB| c3 A FA|A2 G2 G2|[1 G2 z2 BG:|[2 G2 z2 GG|]
|:G2 g2 g2|e2 cB ce| d6|dd dd ed|c6|cc cc dc|B6| G2 z2 GG|
G2 g2 g2|e2 cB ce|d6| B3 B dg|f4 AB|c3 A FA|A2 G2 G2|[1 G2 z2 GG:|[2 G2 z4|] 
(:musicend:)

(:music:)
